www/assets/icons/g_translate.svg

<svg xmlns="http://www.w3.org/2000/svg" width="24" height="24" viewBox="0 0 24 24" fill='currentColor'><path d="M21 4H11l-1-3H3c-1.1 0-2 .9-2 2v15c0 1.1.9 2 2 2h8l1 3h9c1.1 0 2-.9 2-2V6c0-1.1-.9-2-2-2M7 16c-2.76 0-5-2.24-5-5s2.24-5 5-5c1.35 0 2.48.5 3.35 1.3L9.03 8.57c-.38-.36-1.04-.78-2.03-.78-1.74 0-3.15 1.44-3.15 3.21S5.26 14.21 7 14.21c2.01 0 2.84-1.44 2.92-2.41H7v-1.71h4.68c.07.31.12.61.12 1.02C11.8 13.97 9.89 16 7 16m6.17-5.42h3.7c-.43 1.25-1.11 2.43-2.05 3.47-.31-.35-.6-.72-.86-1.1zm8.33 9.92c0 .55-.45 1-1 1H14l2-2.5-1.04-3.1 3.1 3.1.92-.92-3.3-3.25.02-.02c1.13-1.25 1.93-2.69 2.4-4.22H20v-1.3h-4.53V8h-1.29v1.29h-1.44L11.46 5.5h9.04c.55 0 1 .45 1 1z"/></svg>

<svg width="24" height="24" viewBox="0 0 24 24" xmlns="http://www.w3.org/2000/svg" fill='currentColor'><path d="M21 4H11L10 1H3C1.9 1 1 1.9 1 3V18C1 19.1 1.9 20 3 20H11L12 23H21C22.1 23 23 22.1 23 21V6C23 4.9 22.1 4 21 4ZM7 16C4.24 16 2 13.76 2 11C2 8.24 4.24 6 7 6C8.35 6 9.48 6.5 10.35 7.3L9.03 8.57C8.65 8.21 7.99 7.79 7 7.79C5.26 7.79 3.85 9.23 3.85 11C3.85 12.77 5.26 14.21 7 14.21C9.01 14.21 9.84 12.77 9.92 11.8H7V10.09H11.68C11.75 10.4 11.8 10.7 11.8 11.11C11.8 13.97 9.89 16 7 16ZM13.17 10.58H16.87C16.44 11.83 15.76 13.01 14.82 14.05C14.51 13.7 14.22 13.33 13.96 12.95L13.17 10.58ZM21.5 20.5C21.5 21.05 21.05 21.5 20.5 21.5H14L16 19L14.96 15.9L18.06 19L18.98 18.08L15.68 14.83L15.7 14.81C16.83 13.56 17.63 12.12 18.1 10.59H20V9.29H15.47V8H14.18V9.29H12.74L11.46 5.5H20.5C21.05 5.5 21.5 5.95 21.5 6.5V20.5Z"/></svg>
